src/icons/svgs/16/circle-question.svg

<svg width="16" height="16" viewBox="0 0 16 16" fill="none" xmlns="http://www.w3.org/2000/svg">
<path d="M8 1C4.13359 1 1 4.13359 1 8C1 11.8664 4.13359 15 8 15C11.8664 15 15 11.8664 15 8C15 4.13359 11.8664 1 8 1ZM8 11.9375C7.50781 11.9375 7.125 11.5547 7.125 11.0625C7.125 10.5703 7.4832 10.1875 8 10.1875C8.46758 10.1875 8.875 10.5703 8.875 11.0625C8.875 11.5547 8.46758 11.9375 8 11.9375ZM9.88945 8.05469L8.65625 8.82031V8.875C8.65625 9.23047 8.35547 9.53125 8 9.53125C7.64453 9.53125 7.34375 9.23047 7.34375 8.875V8.4375C7.34375 8.21875 7.45312 8 7.67188 7.86328L9.23047 6.93359C9.42188 6.82422 9.53125 6.63281 9.53125 6.41406C9.53125 6.08594 9.2332 5.8125 8.90508 5.8125H7.50781C7.15508 5.8125 6.90625 6.08594 6.90625 6.41406C6.90625 6.76953 6.60547 7.07031 6.25 7.07031C5.89453 7.07031 5.59375 6.76953 5.59375 6.41406C5.59375 5.34766 6.44141 4.5 7.4832 4.5H8.88047C9.99609 4.5 10.8438 5.34766 10.8438 6.41406C10.8438 7.07031 10.4883 7.69922 9.88945 8.05469Z" fill="black"/>
</svg>

<svg width="16" height="16" viewBox="0 0 16 16" xmlns="http://www.w3.org/2000/svg">
    <path d="M8 1a7 7 0 0 0-7 7 7 7 0 0 0 7 7 7 7 0 0 0 7-7 7 7 0 0 0-7-7Zm0 10.938a.864.864 0 0 1-.875-.876.85.85 0 0 1 .875-.874.88.88 0 0 1 .875.874.88.88 0 0 1-.875.876Zm1.89-3.883-1.234.765v.055c0 .355-.3.656-.656.656a.665.665 0 0 1-.656-.656v-.438c0-.218.11-.437.328-.574l1.558-.93a.584.584 0 0 0 .301-.519c0-.328-.298-.601-.626-.601H7.508a.591.591 0 0 0-.602.601c0 .356-.3.656-.656.656a.665.665 0 0 1-.656-.656c0-1.066.847-1.914 1.89-1.914H8.88c1.116 0 1.964.848 1.964 1.914a1.92 1.92 0 0 1-.955 1.64Z"/>
</svg>
